X:296
T:Brennan's Favourite
R:jig
H:See also reel#612
H:Last part with variations
Z:id:hn-jig-296
M:6/8
K:D
~F3 FED|~F3 FEF|DFA dAF|A,/B,/CE A,CE|
~F3 FED|~F3 FEF|DFA dAF|1 A,CE D2E:|2 A,CE D2e||
|:fed edc|dcB AFA|fed edc|dfb a2g|
fed edc|dcB AFA|DFA dAF|A,CE D2e:|
P:variations
|:~F3 FED|FAF FEF|DFA dAF|A,CE A,CE|
~F3 FED|FAF FEF|DFA dAF|1 A,CE D2E:|2 A,CE D2e||
|:~f3 edc|~d3 ABA|~f3 edc|dfb a2g|
~f3 edc|~d3 ABA|DFA dAF|A,CE D2E:|

